X:124
T: ES LIEGT EIN HAUS IM OBERLAND
N: E0062B
O: Europa, Mitteleuropa, Deutschland
R: erzaehlendes Volks - Lied, Ritter - Sage
M: 4/4
L: 1/16
K: F
F4 | F4G4A4B4 | c4c4F4
G4 | A4d4c4F4- | F6EDE4F4 | D8C8 | z12
c4 | c4c4d4c4 | c4B4A4
d4 | c4G4A4F4 | E4F4
G4A4 | A4G2F2G8 | F12

@@@ Tune index: 3774
